;FLAVOR:Marlin
;TIME:336
;Filament used: 0.29116m
;Layer height: 0.2
;MINX:87.2
;MINY:87.2
;MINZ:0.3
;MAXX:112.8
;MAXY:112.8
;MAXZ:9.9
;Generated with Cura_SteamEngine 4.6.1
M140 S100
M105
M190 S100
M104 S240
M105
M109 S240
M82 ;absolute extrusion mode
;G28 ;Home
;G1 Z15.0 F6000 ;Move the platform down 15mm
;Prime the extruder
;G92 E0
;G1 F200 E3
;G92 E0
G92 E0
G92 E0
G1 F1500 E-6.5
;LAYER_COUNT:49
;LAYER:0
M107
G0 F3600 X89.623 Y89.349 Z0.3
;TYPE:SKIRT
G1 F1500 E0
G1 F1800 X90.222 Y88.834 E0.03941
G1 X90.87 Y88.383 E0.0788
G1 X91.561 Y87.999 E0.11824
G1 X92.286 Y87.687 E0.15762
G1 X93.039 Y87.45 E0.197
G1 X93.813 Y87.291 E0.23642
G1 X94.598 Y87.21 E0.27579
G1 X105 Y87.2 E0.79475
G1 X105.789 Y87.24 E0.83417
G1 X106.569 Y87.359 E0.87353
G1 X107.334 Y87.557 E0.91295
G1 X108.074 Y87.831 E0.95232
G1 X108.783 Y88.179 E0.99173
G1 X109.454 Y88.597 E1.03117
G1 X110.078 Y89.08 E1.07053
G1 X110.651 Y89.623 E1.10992
G1 X111.166 Y90.222 E1.14933
G1 X111.617 Y90.87 E1.18872
G1 X112.001 Y91.561 E1.22816
G1 X112.313 Y92.286 E1.26753
G1 X112.55 Y93.039 E1.30692
G1 X112.709 Y93.813 E1.34634
G1 X112.79 Y94.598 E1.38571
G1 X112.8 Y105 E1.90467
G1 X112.76 Y105.789 E1.94408
G1 X112.641 Y106.569 E1.98345
G1 X112.443 Y107.334 E2.02287
G1 X112.169 Y108.074 E2.06224
G1 X111.821 Y108.783 E2.10164
G1 X111.403 Y109.454 E2.14108
G1 X110.92 Y110.078 E2.18045
G1 X110.377 Y110.651 E2.21984
G1 X109.778 Y111.166 E2.25925
G1 X109.13 Y111.617 E2.29864
G1 X108.439 Y112.001 E2.33807
G1 X107.714 Y112.313 E2.37745
G1 X106.961 Y112.55 E2.41684
G1 X106.187 Y112.709 E2.45626
G1 X105.402 Y112.79 E2.49563
G1 X95 Y112.8 E3.01459
G1 X94.211 Y112.76 E3.054
G1 X93.431 Y112.641 E3.09337
G1 X92.666 Y112.443 E3.13279
G1 X91.926 Y112.169 E3.17216
G1 X91.217 Y111.821 E3.21156
G1 X90.546 Y111.403 E3.251
G1 X89.922 Y110.92 E3.29037
G1 X89.349 Y110.377 E3.32975
G1 X88.834 Y109.778 E3.36917
G1 X88.383 Y109.13 E3.40855
G1 X87.999 Y108.439 E3.44799
G1 X87.687 Y107.714 E3.48737
G1 X87.45 Y106.961 E3.52675
G1 X87.291 Y106.187 E3.56618
G1 X87.21 Y105.402 E3.60555
G1 X87.2 Y95 E4.12451
G1 X87.24 Y94.211 E4.16392
G1 X87.359 Y93.431 E4.20328
G1 X87.557 Y92.666 E4.24271
G1 X87.831 Y91.926 E4.28208
G1 X88.179 Y91.217 E4.32148
G1 X88.597 Y90.546 E4.36092
G1 X89.08 Y89.922 E4.40029
G1 X89.623 Y89.349 E4.43967
G0 F3600 X90.016 Y89.53
G1 F1800 X90.611 Y89.042 E4.47806
G1 X91.253 Y88.619 E4.51642
G1 X91.936 Y88.264 E4.55482
G1 X92.651 Y87.983 E4.59315
G1 X93.393 Y87.777 E4.63157
G1 X94.151 Y87.649 E4.66992
G1 X95 Y87.6 E4.71235
G1 X105 Y87.6 E5.21125
G1 X105.768 Y87.64 E5.24962
G1 X106.528 Y87.759 E5.288
G1 X107.271 Y87.957 E5.32636
G1 X107.99 Y88.231 E5.36475
G1 X108.676 Y88.578 E5.4031
G1 X109.323 Y88.994 E5.44148
G1 X109.923 Y89.475 E5.47984
G1 X110.47 Y90.016 E5.51822
G1 X110.958 Y90.611 E5.55662
G1 X111.381 Y91.253 E5.59497
G1 X111.736 Y91.936 E5.63338
G1 X112.017 Y92.651 E5.6717
G1 X112.223 Y93.393 E5.71012
G1 X112.351 Y94.151 E5.74847
G1 X112.4 Y95 E5.7909
G1 X112.4 Y105 E6.2898
G1 X112.36 Y105.768 E6.32817
G1 X112.241 Y106.528 E6.36655
G1 X112.043 Y107.271 E6.40491
G1 X111.769 Y107.99 E6.4433
G1 X111.422 Y108.676 E6.48165
G1 X111.006 Y109.323 E6.52003
G1 X110.525 Y109.923 E6.55839
G1 X109.984 Y110.47 E6.59678
G1 X109.389 Y110.958 E6.63517
G1 X108.747 Y111.381 E6.67353
G1 X108.064 Y111.736 E6.71193
G1 X107.349 Y112.017 E6.75026
G1 X106.607 Y112.223 E6.78868
G1 X105.849 Y112.351 E6.82703
G1 X105 Y112.4 E6.86945
G1 X95 Y112.4 E7.36836
G1 X94.232 Y112.36 E7.40672
G1 X93.472 Y112.241 E7.4451
G1 X92.729 Y112.043 E7.48346
G1 X92.01 Y111.769 E7.52185
G1 X91.324 Y111.422 E7.56021
G1 X90.677 Y111.006 E7.59858
G1 X90.077 Y110.525 E7.63695
G1 X89.53 Y109.984 E7.67533
G1 X89.042 Y109.389 E7.71372
G1 X88.619 Y108.747 E7.75208
G1 X88.264 Y108.064 E7.79048
G1 X87.983 Y107.349 E7.82881
G1 X87.777 Y106.607 E7.86723
G1 X87.649 Y105.849 E7.90558
G1 X87.6 Y105 E7.94801
G1 X87.6 Y95 E8.44691
G1 X87.64 Y94.232 E8.48528
G1 X87.759 Y93.472 E8.52366
G1 X87.957 Y92.729 E8.56202
G1 X88.231 Y92.01 E8.6004
G1 X88.578 Y91.324 E8.63876
G1 X88.994 Y90.677 E8.67713
G1 X89.475 Y90.077 E8.7155
G1 X90.016 Y89.53 E8.75388
G0 F3600 X90.408 Y89.716
G1 F1800 X90.998 Y89.257 E8.79118
G1 X91.634 Y88.862 E8.82853
G1 X92.308 Y88.538 E8.86584
G1 X93.013 Y88.288 E8.90316
G1 X93.741 Y88.114 E8.9405
G1 X94.483 Y88.019 E8.97782
G1 X95 Y88 E9.00363
G1 X105 Y88 E9.50253
G1 X105.747 Y88.04 E9.53985
G1 X106.485 Y88.159 E9.57715
G1 X107.207 Y88.357 E9.6145
G1 X107.903 Y88.63 E9.6518
G1 X108.566 Y88.977 E9.68913
G1 X109.189 Y89.392 E9.72648
G1 X109.763 Y89.871 E9.76378
G1 X110.284 Y90.408 E9.8011
G1 X110.743 Y90.998 E9.8384
G1 X111.138 Y91.634 E9.87575
G1 X111.462 Y92.308 E9.91306
G1 X111.712 Y93.013 E9.95038
G1 X111.886 Y93.741 E9.98772
G1 X111.981 Y94.483 E10.02504
G1 X112 Y95 E10.05085
G1 X112 Y105 E10.54975
G1 X111.96 Y105.747 E10.58708
G1 X111.841 Y106.485 E10.62437
G1 X111.643 Y107.207 E10.66172
G1 X111.37 Y107.903 E10.69902
G1 X111.023 Y108.566 E10.73635
G1 X110.608 Y109.189 E10.7737
G1 X110.129 Y109.763 E10.811
G1 X109.592 Y110.284 E10.84833
G1 X109.002 Y110.743 E10.88562
G1 X108.366 Y111.138 E10.92297
G1 X107.692 Y111.462 E10.96028
G1 X106.987 Y111.712 E10.9976
G1 X106.259 Y111.886 E11.03494
G1 X105.517 Y111.981 E11.07226
G1 X105 Y112 E11.09807
G1 X95 Y112 E11.59698
G1 X94.253 Y111.96 E11.6343
G1 X93.515 Y111.841 E11.67159
G1 X92.793 Y111.643 E11.70894
G1 X92.097 Y111.37 E11.74624
G1 X91.434 Y111.023 E11.78358
G1 X90.811 Y110.608 E11.82092
G1 X90.237 Y110.129 E11.85822
G1 X89.716 Y109.592 E11.89555
G1 X89.257 Y109.002 E11.93284
G1 X88.862 Y108.366 E11.97019
G1 X88.538 Y107.692 E12.0075
G1 X88.288 Y106.987 E12.04482
G1 X88.114 Y106.259 E12.08217
G1 X88.019 Y105.517 E12.11949
G1 X88 Y105 E12.1453
G1 X88 Y95 E12.6442
G1 X88.04 Y94.253 E12.68152
G1 X88.159 Y93.515 E12.71881
G1 X88.357 Y92.793 E12.75617
G1 X88.63 Y92.097 E12.79346
G1 X88.977 Y91.434 E12.8308
G1 X89.392 Y90.811 E12.86814
G1 X89.871 Y90.237 E12.90544
G1 X90.408 Y89.716 E12.94277
G0 F3600 X90.265 Y90.402
G1 F1800 X90.799 Y89.909 E12.97903
G1 X91.384 Y89.479 E13.01525
G1 X92.013 Y89.115 E13.05151
G1 X92.678 Y88.822 E13.08776
G1 X93.371 Y88.604 E13.12401
G1 X94.083 Y88.464 E13.16021
G1 X95 Y88.4 E13.20607
G1 X105 Y88.4 E13.70497
G1 X105.725 Y88.44 E13.7412
G1 X106.442 Y88.559 E13.77746
G1 X107.141 Y88.757 E13.8137
G1 X107.814 Y89.03 E13.84994
G1 X108.453 Y89.375 E13.88617
G1 X109.05 Y89.789 E13.92241
G1 X109.598 Y90.265 E13.95863
G1 X110.091 Y90.799 E13.99488
G1 X110.521 Y91.384 E14.03111
G1 X110.885 Y92.013 E14.06736
G1 X111.178 Y92.678 E14.10362
G1 X111.396 Y93.371 E14.13986
G1 X111.536 Y94.083 E14.17606
G1 X111.6 Y95 E14.22192
G1 X111.6 Y105 E14.72083
G1 X111.56 Y105.725 E14.75705
G1 X111.441 Y106.442 E14.79331
G1 X111.243 Y107.141 E14.82956
G1 X110.97 Y107.814 E14.86579
G1 X110.625 Y108.453 E14.90202
G1 X110.211 Y109.05 E14.93827
G1 X109.735 Y109.598 E14.97448
G1 X109.201 Y110.091 E15.01074
G1 X108.616 Y110.521 E15.04696
G1 X107.987 Y110.885 E15.08322
G1 X107.322 Y111.178 E15.11947
G1 X106.629 Y111.396 E15.15572
G1 X105.917 Y111.536 E15.19192
G1 X105 Y111.6 E15.23778
G1 X95 Y111.6 E15.73668
G1 X94.275 Y111.56 E15.77291
G1 X93.558 Y111.441 E15.80917
G1 X92.859 Y111.243 E15.84541
G1 X92.186 Y110.97 E15.88165
G1 X91.547 Y110.625 E15.91788
G1 X90.95 Y110.211 E15.95412
G1 X90.402 Y109.735 E15.99033
G1 X89.909 Y109.201 E16.02659
G1 X89.479 Y108.616 E16.06282
G1 X89.115 Y107.987 E16.09907
G1 X88.822 Y107.322 E16.13533
G1 X88.604 Y106.629 E16.17157
G1 X88.464 Y105.917 E16.20777
G1 X88.4 Y105 E16.25363
G1 X88.4 Y95 E16.75254
G1 X88.44 Y94.275 E16.78876
G1 X88.559 Y93.558 E16.82502
G1 X88.757 Y92.859 E16.86127
G1 X89.03 Y92.186 E16.8975
G1 X89.375 Y91.547 E16.93373
G1 X89.789 Y90.95 E16.96997
G1 X90.265 Y90.402 E17.00619
G0 F3600 X90.659 Y90.573
G1 F1800 X91.189 Y90.109 E17.04133
G1 X91.768 Y89.709 E17.07644
G1 X92.389 Y89.377 E17.11157
G1 X93.043 Y89.117 E17.14668
G1 X93.723 Y88.933 E17.18183
G1 X94.419 Y88.827 E17.21695
G1 X95 Y88.8 E17.24597
G1 X105 Y88.8 E17.74487
G1 X105.703 Y88.84 E17.78
G1 X106.397 Y88.959 E17.81513
G1 X107.072 Y89.157 E17.85023
G1 X107.721 Y89.429 E17.88533
G1 X108.335 Y89.774 E17.92047
G1 X108.906 Y90.185 E17.95557
G1 X109.427 Y90.659 E17.99071
G1 X109.891 Y91.189 E18.02585
G1 X110.291 Y91.768 E18.06096
G1 X110.623 Y92.389 E18.0961
G1 X110.883 Y93.043 E18.13121
G1 X111.067 Y93.723 E18.16635
G1 X111.173 Y94.419 E18.20148
G1 X111.2 Y95 E18.23049
G1 X111.2 Y105 E18.7294
G1 X111.16 Y105.703 E18.76453
G1 X111.041 Y106.397 E18.79966
G1 X110.843 Y107.072 E18.83475
G1 X110.571 Y107.721 E18.86986
G1 X110.226 Y108.335 E18.90499
G1 X109.815 Y108.906 E18.94009
G1 X109.341 Y109.427 E18.97523
G1 X108.811 Y109.891 E19.01038
G1 X108.232 Y110.291 E19.04549
G1 X107.611 Y110.623 E19.08062
G1 X106.957 Y110.883 E19.11573
G1 X106.277 Y111.067 E19.15088
G1 X105.581 Y111.173 E19.186
G1 X105 Y111.2 E19.21502
G1 X95 Y111.2 E19.71392
G1 X94.297 Y111.16 E19.74905
G1 X93.603 Y111.041 E19.78418
G1 X92.928 Y110.843 E19.81927
G1 X92.279 Y110.571 E19.85438
G1 X91.665 Y110.226 E19.88952
G1 X91.094 Y109.815 E19.92462
G1 X90.573 Y109.341 E19.95976
G1 X90.109 Y108.811 E19.9949
G1 X89.709 Y108.232 E20.03001
G1 X89.377 Y107.611 E20.06514
G1 X89.117 Y106.957 E20.10025
G1 X88.933 Y106.277 E20.1354
G1 X88.827 Y105.581 E20.17052
G1 X88.8 Y105 E20.19954
G1 X88.8 Y95 E20.69844
G1 X88.84 Y94.297 E20.73357
G1 X88.959 Y93.603 E20.7687
G1 X89.157 Y92.928 E20.8038
G1 X89.429 Y92.279 E20.8389
G1 X89.774 Y91.665 E20.87404
G1 X90.185 Y91.094 E20.90914
G1 X90.659 Y90.573 E20.94428
G0 F3600 X91.053 Y90.751
G1 F1800 X91.578 Y90.317 E20.97826
G1 X92.15 Y89.948 E21.01222
G1 X92.762 Y89.649 E21.04621
G1 X93.404 Y89.424 E21.08015
G1 X94.069 Y89.275 E21.11415
G1 X95 Y89.2 E21.16074
G1 X105 Y89.2 E21.65965
G1 X105.68 Y89.24 E21.69363
G1 X106.35 Y89.359 E21.72758
G1 X107.002 Y89.556 E21.76156
G1 X107.626 Y89.828 E21.79552
G1 X108.214 Y90.172 E21.82951
G1 X108.758 Y90.582 E21.86349
G1 X109.249 Y91.053 E21.89744
G1 X109.683 Y91.578 E21.93142
G1 X110.052 Y92.15 E21.96538
G1 X110.351 Y92.762 E21.99936
G1 X110.576 Y93.404 E22.0333
G1 X110.725 Y94.069 E22.0673
G1 X110.8 Y95 E22.1139
G1 X110.8 Y105 E22.6128
G1 X110.76 Y105.68 E22.64679
G1 X110.641 Y106.35 E22.68074
G1 X110.444 Y107.002 E22.71472
G1 X110.172 Y107.626 E22.74868
G1 X109.828 Y108.214 E22.78266
G1 X109.418 Y108.758 E22.81665
G1 X108.947 Y109.249 E22.85059
G1 X108.422 Y109.683 E22.88458
G1 X107.85 Y110.052 E22.91854
G1 X107.238 Y110.351 E22.95252
G1 X106.596 Y110.576 E22.98646
G1 X105.931 Y110.725 E23.02046
G1 X105 Y110.8 E23.06706
G1 X95 Y110.8 E23.56596
G1 X94.32 Y110.76 E23.59994
G1 X93.65 Y110.641 E23.63389
G1 X92.998 Y110.444 E23.66787
G1 X92.374 Y110.172 E23.70183
G1 X91.786 Y109.828 E23.73582
G1 X91.242 Y109.418 E23.76981
G1 X90.751 Y108.947 E23.80375
G1 X90.317 Y108.422 E23.83773
G1 X89.948 Y107.85 E23.87169
G1 X89.649 Y107.238 E23.90567
G1 X89.424 Y106.596 E23.93961
G1 X89.275 Y105.931 E23.97361
G1 X89.2 Y105 E24.02021
G1 X89.2 Y95 E24.51911
G1 X89.24 Y94.32 E24.5531
G1 X89.359 Y93.65 E24.58705
G1 X89.556 Y92.998 E24.62103
G1 X89.828 Y92.374 E24.65499
G1 X90.172 Y91.786 E24.68898
G1 X90.582 Y91.242 E24.72296
G1 X91.053 Y90.751 E24.75691
G0 F3600 X91.445 Y90.935
G1 F1800 X91.965 Y90.534 E24.78967
G1 X92.529 Y90.198 E24.82242
G1 X93.131 Y89.934 E24.85521
G1 X93.76 Y89.744 E24.888
G1 X94.407 Y89.633 E24.92075
G1 X95 Y89.6 E24.95038
G1 X105 Y89.6 E25.44928
G1 X105.656 Y89.64 E25.48207
G1 X106.302 Y89.759 E25.51484
G1 X106.929 Y89.956 E25.54763
G1 X107.527 Y90.228 E25.5804
G1 X108.088 Y90.57 E25.61318
G1 X108.603 Y90.978 E25.64596
G1 X109.065 Y91.445 E25.67874
G1 X109.466 Y91.965 E25.7115
G1 X109.802 Y92.529 E25.74425
G1 X110.066 Y93.131 E25.77704
G1 X110.256 Y93.76 E25.80983
G1 X110.367 Y94.407 E25.84258
G1 X110.4 Y95 E25.87221
G1 X110.4 Y105 E26.37111
G1 X110.36 Y105.656 E26.4039
G1 X110.241 Y106.302 E26.43667
G1 X110.044 Y106.929 E26.46946
G1 X109.772 Y107.527 E26.50223
G1 X109.43 Y108.088 E26.53501
G1 X109.022 Y108.603 E26.56779
G1 X108.555 Y109.065 E26.60057
G1 X108.035 Y109.466 E26.63333
G1 X107.471 Y109.802 E26.66608
G1 X106.869 Y110.066 E26.69887
G1 X106.24 Y110.256 E26.73166
G1 X105.593 Y110.367 E26.76441
G1 X105 Y110.4 E26.79404
G1 X95 Y110.4 E27.29294
G1 X94.344 Y110.36 E27.32573
G1 X93.698 Y110.241 E27.3585
G1 X93.071 Y110.044 E27.39129
G1 X92.473 Y109.772 E27.42406
G1 X91.912 Y109.43 E27.45684
G1 X91.397 Y109.022 E27.48962
G1 X90.935 Y108.555 E27.5224
G1 X90.534 Y108.035 E27.55516
G1 X90.198 Y107.471 E27.58791
G1 X89.934 Y106.869 E27.6207
G1 X89.744 Y106.24 E27.65349
G1 X89.633 Y105.593 E27.68624
G1 X89.6 Y105 E27.71587
G1 X89.6 Y95 E28.21477
G1 X89.64 Y94.344 E28.24756
G1 X89.759 Y93.698 E28.28033
G1 X89.956 Y93.071 E28.31312
G1 X90.228 Y92.473 E28.34589
G1 X90.57 Y91.912 E28.37867
G1 X90.978 Y91.397 E28.41145
G1 X91.445 Y90.935 E28.44423
G0 F3600 X91.373 Y91.559
G1 F1800 X91.836 Y91.129 E28.47575
G1 X92.35 Y90.76 E28.50732
G1 X92.906 Y90.46 E28.53884
G1 X93.495 Y90.232 E28.57035
G1 X94.109 Y90.08 E28.6019
G1 X95 Y90 E28.64653
G1 X105 Y90 E29.14544
G1 X105.631 Y90.04 E29.17698
G1 X106.252 Y90.159 E29.20853
G1 X106.852 Y90.356 E29.24003
G1 X107.424 Y90.627 E29.27161
G1 X107.956 Y90.967 E29.30311
G1 X108.441 Y91.373 E29.33467
G1 X108.871 Y91.836 E29.36619
G1 X109.24 Y92.35 E29.39776
G1 X109.54 Y92.906 E29.42928
G1 X109.768 Y93.495 E29.46079
G1 X109.92 Y94.109 E29.49234
G1 X110 Y95 E29.53697
G1 X110 Y105 E30.03588
G1 X109.96 Y105.631 E30.06742
G1 X109.841 Y106.252 E30.09897
G1 X109.644 Y106.852 E30.13047
G1 X109.373 Y107.424 E30.16205
G1 X109.033 Y107.956 E30.19355
G1 X108.627 Y108.441 E30.22511
G1 X108.164 Y108.871 E30.25663
G1 X107.65 Y109.24 E30.2882
G1 X107.094 Y109.54 E30.31972
G1 X106.505 Y109.768 E30.35123
G1 X105.891 Y109.92 E30.38278
G1 X105 Y110 E30.42741
G1 X95 Y110 E30.92632
G1 X94.369 Y109.96 E30.95786
G1 X93.748 Y109.841 E30.98941
G1 X93.148 Y109.644 E31.02091
G1 X92.576 Y109.373 E31.05249
G1 X92.044 Y109.033 E31.08399
G1 X91.559 Y108.627 E31.11555
G1 X91.129 Y108.164 E31.14707
G1 X90.76 Y107.65 E31.17864
G1 X90.46 Y107.094 E31.21016
G1 X90.232 Y106.505 E31.24167
G1 X90.08 Y105.891 E31.27322
G1 X90 Y105 E31.31785
G1 X90 Y95 E31.81676
G1 X90.04 Y94.369 E31.8483
G1 X90.159 Y93.748 E31.87985
G1 X90.356 Y93.148 E31.91135
G1 X90.627 Y92.576 E31.94293
G1 X90.967 Y92.044 E31.97443
G1 X91.373 Y91.559 E32.00599
G0 F3600 X91.767 Y91.728
G1 F1800 X92.225 Y91.331 E32.03622
G1 X92.732 Y90.998 E32.06649
G1 X93.278 Y90.734 E32.09674
G1 X93.854 Y90.545 E32.12699
G1 X94.45 Y90.433 E32.15724
G1 X95 Y90.4 E32.18473
G1 X105 Y90.4 E32.68363
G1 X105.605 Y90.44 E32.71388
G1 X106.199 Y90.559 E32.74411
G1 X106.773 Y90.755 E32.77437
G1 X107.316 Y91.026 E32.80464
G1 X107.819 Y91.365 E32.83491
G1 X108.272 Y91.767 E32.86512
G1 X108.669 Y92.225 E32.89536
G1 X109.002 Y92.732 E32.92562
G1 X109.266 Y93.278 E32.95588
G1 X109.455 Y93.854 E32.98613
G1 X109.567 Y94.45 E33.01638
G1 X109.6 Y95 E33.04387
G1 X109.6 Y105 E33.54277
G1 X109.56 Y105.605 E33.57302
G1 X109.441 Y106.199 E33.60324
G1 X109.245 Y106.773 E33.63351
G1 X108.974 Y107.316 E33.66378
G1 X108.635 Y107.819 E33.69404
G1 X108.233 Y108.272 E33.72426
G1 X107.775 Y108.669 E33.7545
G1 X107.268 Y109.002 E33.78476
G1 X106.722 Y109.266 E33.81502
G1 X106.146 Y109.455 E33.84526
G1 X105.55 Y109.567 E33.87552
G1 X105 Y109.6 E33.90301
G1 X95 Y109.6 E34.40191
G1 X94.395 Y109.56 E34.43216
G1 X93.801 Y109.441 E34.46238
G1 X93.227 Y109.245 E34.49264
G1 X92.684 Y108.974 E34.52292
G1 X92.181 Y108.635 E34.55318
G1 X91.728 Y108.233 E34.5834
G1 X91.331 Y107.775 E34.61364
G1 X90.998 Y107.268 E34.6439
G1 X90.734 Y106.722 E34.67416
G1 X90.545 Y106.146 E34.7044
G1 X90.433 Y105.55 E34.73466
G1 X90.4 Y105 E34.76214
G1 X90.4 Y95 E35.26105
G1 X90.44 Y94.395 E35.2913
G1 X90.559 Y93.801 E35.32152
G1 X90.755 Y93.227 E35.35178
G1 X91.026 Y92.684 E35.38206
G1 X91.365 Y92.181 E35.41232
G1 X91.767 Y91.728 E35.44253
G0 F3600 X92.16 Y91.906
G1 F1800 X92.613 Y91.544 E35.47146
G1 X93.111 Y91.249 E35.50034
G1 X93.645 Y91.024 E35.52925
G1 X94.205 Y90.876 E35.55815
G1 X95 Y90.8 E35.59799
G1 X105 Y90.8 E36.09689
